svg/blobs-icons/no-decorations/gift.svg

<svg xmlns="http://www.w3.org/2000/svg" xmlns:xlink="http://www.w3.org/1999/xlink" preserveAspectRatio="xMidYMid" width="195" height="216" viewBox="0 0 195 216"><defs><style>.cls-3{fill:#ff3a2f}.cls-4{fill:#060606;opacity:.35}.cls-5{fill:#0cb04a}</style></defs><g id="group-30svg"><path d="M175.101 215.532s-155.643.0-155.643.0.0-140.117.0-140.117 155.643.0 155.643.0.0 140.117.0 140.117z" id="path-1" class="cls-3" fill-rule="evenodd"/><path d="M99.151 80.59s-12.623.0-12.623.0.0 134.942.0 134.942 12.623.0 12.623.0.0-134.942.0-134.942z" id="path-2" class="cls-4" fill-rule="evenodd"/><path d="M103.591 80.59s-12.623.0-12.623.0.0 134.942.0 134.942 12.623.0 12.623.0.0-134.942.0-134.942z" id="path-3" class="cls-5" fill-rule="evenodd"/><path d="M147.313 4.503C138.836-3.974 121.254-.134 108.041 13.079 103.081 18.039 99.443 23.614 97.28 29.092c-2.163-5.478-5.801-11.053-10.761-16.013C73.305-.134 55.722-3.974 47.246 4.503c-8.477 8.476-4.636 26.059 8.577 39.27 13.213 13.215 30.796 17.055 39.272 8.578C95.962 51.484 96.667 50.5 97.279 49.459c.613 1.041 1.318 2.025 2.185 2.892 8.476 8.477 26.059 4.637 39.272-8.578 13.213-13.211 17.054-30.794 8.577-39.27zM94.961 52.216c-4.55 4.549-15.181 1.296-23.745-7.267C62.652 36.384 59.398 25.753 63.947 21.204c4.551-4.55 15.182-1.297 23.746 7.269 3.28 3.278 5.764 6.859 7.346 10.287C94.813 42.365 95.357 45.707 96.755 48.533 96.468 49.967 95.926 51.25 94.961 52.216zm28.382-7.267C114.779 53.512 104.148 56.765 99.598 52.216 98.633 51.25 98.091 49.967 97.804 48.533 99.203 45.707 99.746 42.365 99.52 38.76 101.102 35.332 103.585 31.751 106.866 28.473 115.43 19.907 126.06 16.654 130.611 21.204 135.161 25.753 131.907 36.384 123.343 44.949z" id="path-4" class="cls-5" fill-rule="evenodd"/><path d="M130.638 34.79C129.224 37.812 127.05 40.931 124.31 43.874h14.32C138.665 43.839 138.702 43.808 138.736 43.773 141.573 40.938 143.948 37.896 145.892 34.79H130.638z" id="path-5" class="cls-4" fill-rule="evenodd"/><path d="M99.52 38.759C100.125 37.45 100.901 36.12 101.763 34.79H92.797C93.659 36.12 94.435 37.45 95.039 38.759 94.928 40.539 95.007 42.252 95.281 43.874h3.997C99.552 42.252 99.632 40.539 99.52 38.759z" id="path-6" class="cls-4" fill-rule="evenodd"/><path d="M65.335 37.812S51.174 38.42 51.174 38.42c1.943 3.105 1.813 2.518 4.649 5.353C55.857 43.808 55.894 43.839 55.929 43.874H70.25C67.509 40.931 66.748 40.834 65.335 37.812z" id="path-7" class="cls-4" fill-rule="evenodd"/><path d="M194.556 96.107s-194.553.0-194.553.0.0-52.234.0-52.234 194.553.0 194.553.0.0 52.234.0 52.234z" id="path-8" class="cls-3" fill-rule="evenodd"/><path d="M174.862 121.705S19.454 103.947 19.454 103.947s0-7.84.0-7.84 155.408.0 155.408.0.0 25.598.0 25.598z" id="path-9" class="cls-4" fill-rule="evenodd"/></g></svg>

<svg xmlns="http://www.w3.org/2000/svg" xmlns:xlink="http://www.w3.org/1999/xlink" preserveAspectRatio="xMidYMid" width="195" height="216" viewBox="0 0 195 216">
  <defs>
    <style>

      .cls-3 {
        fill: #ff3a2f;
      }

      .cls-4 {
        fill: #060606;
        opacity: 0.35;
      }

      .cls-5 {
        fill: #0cb04a;
      }
    </style>
  </defs>
  <g id="group-30svg">
    <path d="M175.101,215.532 C175.101,215.532 19.458,215.532 19.458,215.532 C19.458,215.532 19.458,75.415 19.458,75.415 C19.458,75.415 175.101,75.415 175.101,75.415 C175.101,75.415 175.101,215.532 175.101,215.532 Z" id="path-1" class="cls-3" fill-rule="evenodd"/>
    <path d="M99.151,80.590 C99.151,80.590 86.528,80.590 86.528,80.590 C86.528,80.590 86.528,215.532 86.528,215.532 C86.528,215.532 99.151,215.532 99.151,215.532 C99.151,215.532 99.151,80.590 99.151,80.590 Z" id="path-2" class="cls-4" fill-rule="evenodd"/>
    <path d="M103.591,80.590 C103.591,80.590 90.968,80.590 90.968,80.590 C90.968,80.590 90.968,215.532 90.968,215.532 C90.968,215.532 103.591,215.532 103.591,215.532 C103.591,215.532 103.591,80.590 103.591,80.590 Z" id="path-3" class="cls-5" fill-rule="evenodd"/>
    <path d="M147.313,4.503 C138.836,-3.974 121.254,-0.134 108.041,13.079 C103.081,18.039 99.443,23.614 97.280,29.092 C95.117,23.614 91.479,18.039 86.519,13.079 C73.305,-0.134 55.722,-3.974 47.246,4.503 C38.769,12.979 42.610,30.562 55.823,43.773 C69.036,56.988 86.619,60.828 95.095,52.351 C95.962,51.484 96.667,50.500 97.279,49.459 C97.892,50.500 98.597,51.484 99.464,52.351 C107.940,60.828 125.523,56.988 138.736,43.773 C151.949,30.562 155.790,12.979 147.313,4.503 ZM94.961,52.216 C90.411,56.765 79.780,53.512 71.216,44.949 C62.652,36.384 59.398,25.753 63.947,21.204 C68.498,16.654 79.129,19.907 87.693,28.473 C90.973,31.751 93.457,35.332 95.039,38.760 C94.813,42.365 95.357,45.707 96.755,48.533 C96.468,49.967 95.926,51.250 94.961,52.216 ZM123.343,44.949 C114.779,53.512 104.148,56.765 99.598,52.216 C98.633,51.250 98.091,49.967 97.804,48.533 C99.203,45.707 99.746,42.365 99.520,38.760 C101.102,35.332 103.585,31.751 106.866,28.473 C115.430,19.907 126.060,16.654 130.611,21.204 C135.161,25.753 131.907,36.384 123.343,44.949 Z" id="path-4" class="cls-5" fill-rule="evenodd"/>
    <path d="M130.638,34.790 C129.224,37.812 127.050,40.931 124.310,43.874 C124.310,43.874 138.630,43.874 138.630,43.874 C138.665,43.839 138.702,43.808 138.736,43.773 C141.573,40.938 143.948,37.896 145.892,34.790 C145.892,34.790 130.638,34.790 130.638,34.790 Z" id="path-5" class="cls-4" fill-rule="evenodd"/>
    <path d="M99.520,38.759 C100.125,37.450 100.901,36.120 101.763,34.790 C101.763,34.790 92.797,34.790 92.797,34.790 C93.659,36.120 94.435,37.450 95.039,38.759 C94.928,40.539 95.007,42.252 95.281,43.874 C95.281,43.874 99.278,43.874 99.278,43.874 C99.552,42.252 99.632,40.539 99.520,38.759 Z" id="path-6" class="cls-4" fill-rule="evenodd"/>
    <path d="M65.335,37.812 C65.335,37.812 51.174,38.420 51.174,38.420 C53.117,41.525 52.987,40.938 55.823,43.773 C55.857,43.808 55.894,43.839 55.929,43.874 C55.929,43.874 70.250,43.874 70.250,43.874 C67.509,40.931 66.748,40.834 65.335,37.812 Z" id="path-7" class="cls-4" fill-rule="evenodd"/>
    <path d="M194.556,96.107 C194.556,96.107 0.003,96.107 0.003,96.107 C0.003,96.107 0.003,43.873 0.003,43.873 C0.003,43.873 194.556,43.873 194.556,43.873 C194.556,43.873 194.556,96.107 194.556,96.107 Z" id="path-8" class="cls-3" fill-rule="evenodd"/>
    <path d="M174.862,121.705 C174.862,121.705 19.454,103.947 19.454,103.947 C19.454,103.947 19.454,96.107 19.454,96.107 C19.454,96.107 174.862,96.107 174.862,96.107 C174.862,96.107 174.862,121.705 174.862,121.705 Z" id="path-9" class="cls-4" fill-rule="evenodd"/>
  </g>
</svg>
